packages/ffe-icons/icons/open/300/sm/swipe_down_alt.svg

<svg xmlns="http://www.w3.org/2000/svg" height="20" viewBox="0 -960 960 960" width="20"><path d="M479.806-129.078q-6.4 0-11.949-2.308-5.549-2.308-10.297-7.056l-89.636-89.636q-8.308-8.307-8-18.576.307-10.269 8.438-18.577 8.869-8.307 19.089-8.307 10.221 0 18.178 8.286l48.372 49.33v-169.977q-67-9.87-111.5-60.403-44.5-50.534-44.5-119.516 0-76.031 53.284-129.106 53.284-53.075 128.884-53.075t128.715 53.235q53.115 53.235 53.115 128.765 0 69.055-44.5 119.642-44.5 50.588-111.5 60.458v169.977l48.925-48.924q8.307-8.308 18.743-8.5 10.435-.192 18.493 8.199 8.609 8.608 8.609 18.493 0 9.884-8.693 18.576l-89.506 89.236q-5.164 5.148-10.764 7.456-5.6 2.308-12 2.308Zm.239-306.921q54.186 0 92.071-37.93t37.885-92.115q0-54.186-37.93-92.071T479.955-696q-54.186 0-92.071 37.93t-37.885 92.116q0 54.186 37.93 92.071 37.93 37.884 92.116 37.884Zm-.045-130Z"/></svg>

<svg xmlns="http://www.w3.org/2000/svg" height="20" viewBox="0 -960 960 960" width="20"><path d="M479.81-129.08q-6.4 0-11.95-2.31-5.55-2.3-10.3-7.05l-89.64-89.64q-8.3-8.31-8-18.57.31-10.27 8.44-18.58 8.87-8.31 19.09-8.31t18.18 8.29L454-215.92V-385.9q-67-9.87-111.5-60.4Q298-496.84 298-565.82q0-76.03 53.28-129.1Q404.57-748 480.17-748t128.71 53.24Q662-641.53 662-566q0 69.06-44.5 119.64Q573-395.77 506-385.9v169.98l48.92-48.93q8.31-8.3 18.75-8.5 10.43-.19 18.49 8.2 8.61 8.61 8.61 18.5 0 9.88-8.69 18.57l-89.51 89.24q-5.16 5.15-10.76 7.45-5.6 2.31-12 2.31Zm.24-306.92q54.18 0 92.07-37.93Q610-511.86 610-566.04q0-54.19-37.93-92.08Q534.14-696 479.95-696q-54.18 0-92.07 37.93Q350-620.14 350-565.95q0 54.18 37.93 92.07Q425.86-436 480.05-436ZM480-566Z"/></svg>
